findly-builder/apps/searchassist/src/assets/icons/warning_escalation.svg

<svg width="14" height="12" viewBox="0 0 14 12" fill="none" xmlns="http://www.w3.org/2000/svg">
<path d="M7.63463 9.22581C7.63463 8.86949 7.34578 8.58065 6.98947 8.58065C6.63316 8.58065 6.34431 8.86949 6.34431 9.22581C6.34431 9.58212 6.63316 9.87097 6.98947 9.87097C7.34578 9.87097 7.63463 9.58212 7.63463 9.22581Z" fill="#DD3646"/>
<path d="M7.50349 7.23735C7.47976 7.50039 7.25869 7.70651 6.98947 7.70651C6.70442 7.70651 6.47334 7.47543 6.47334 7.19038V4.31166L6.47545 4.26468C6.49918 4.00164 6.72026 3.79553 6.98947 3.79553C7.27452 3.79553 7.5056 4.0266 7.5056 4.31166V7.19038L7.50349 7.23735Z" fill="#DD3646"/>
<path fill-rule="evenodd" clip-rule="evenodd" d="M6.40144 0.192193C6.61348 0.0649654 6.84808 0 7.09541 0C7.34274 0 7.57734 0.0649654 7.78938 0.192193C7.99989 0.318498 8.16759 0.493337 8.28673 0.710589L13.3541 10.0009L13.3897 10.0704C13.5888 10.4857 13.5651 10.9255 13.3277 11.3296C13.2076 11.5346 13.0407 11.6997 12.8337 11.819C12.6257 11.9389 12.3973 12 12.1574 12L2.01478 11.9997L1.93247 11.9964C1.72891 11.9815 1.53531 11.9217 1.35713 11.819C1.15015 11.6997 0.983238 11.5346 0.863293 11.33C0.608561 10.8963 0.601076 10.4247 0.842054 9.99099L5.91388 0.693433L5.95763 0.620721C6.07156 0.444658 6.22101 0.300451 6.40144 0.192193ZM7.25829 1.07735C7.20669 1.04639 7.15567 1.03226 7.09541 1.03226C7.03515 1.03226 6.98413 1.04639 6.93253 1.07735C6.88697 1.10468 6.85241 1.13803 6.83428 1.16541L6.8103 1.20489L1.74634 10.4888C1.68166 10.6052 1.68296 10.6873 1.75361 10.8076C1.78285 10.8575 1.82027 10.8945 1.87254 10.9246C1.91658 10.95 1.95972 10.9633 1.98855 10.9658L2.03338 10.9677H12.1574C12.2164 10.9677 12.267 10.9542 12.3183 10.9246C12.3706 10.8945 12.408 10.8575 12.4374 10.8072C12.5034 10.695 12.5075 10.618 12.4659 10.5307L12.4426 10.4853L7.38107 1.20591C7.35025 1.1497 7.31143 1.10923 7.25829 1.07735Z" fill="#DD3646"/>
</svg>

<svg width="14" height="12" fill="none" xmlns="http://www.w3.org/2000/svg"><path d="M7.635 9.226a.645.645 0 1 0-1.29 0 .645.645 0 0 0 1.29 0Zm-.132-1.989a.516.516 0 0 1-1.03-.047V4.312l.002-.047a.516.516 0 0 1 1.03.047V7.19l-.002.047Z" fill="#DD3646"/><path fill-rule="evenodd" clip-rule="evenodd" d="M6.401.192C6.613.065 6.848 0 7.095 0a1.359 1.359 0 0 1 1.191.71L13.355 10l.036.07c.199.416.175.855-.062 1.26a1.34 1.34 0 0 1-.494.489 1.34 1.34 0 0 1-.677.181H2.015l-.083-.004a1.34 1.34 0 0 1-.575-.177 1.344 1.344 0 0 1-.494-.489 1.299 1.299 0 0 1-.02-1.339L5.912.693l.045-.072C6.072.445 6.22.3 6.4.192Zm.857.885a.302.302 0 0 0-.163-.045.302.302 0 0 0-.162.045.316.316 0 0 0-.099.088l-.024.04-5.064 9.284c-.064.116-.063.198.008.319.029.05.066.087.119.117a.304.304 0 0 0 .116.04l.044.003h10.124a.31.31 0 0 0 .161-.043.312.312 0 0 0 .12-.118c.065-.112.07-.189.028-.276l-.023-.046-5.062-9.28a.326.326 0 0 0-.123-.128Z" fill="#DD3646"/></svg>
